svg/girl_1525y_positive.svg

<svg width="48" height="48" viewBox="0 0 48 48" fill="none" xmlns="http://www.w3.org/2000/svg">
<path fill-rule="evenodd" clip-rule="evenodd" d="M24.3177 4.56034C24.2517 4.56034 24.1867 4.56683 24.1207 4.56823C24.0917 4.56793 24.0637 4.56443 24.0347 4.56433C24.0218 4.56383 24.0117 4.56423 23.9977 4.56433V4.56233C20.1808 4.45374 13.0769 7.03391 12.8219 16.8862C13.0779 25.5891 10.1179 27.806 10.8279 30.047C11.3759 29.723 11.9139 29.449 12.4509 29.217C12.7199 29.101 12.9869 28.996 13.2559 28.9C14.6019 28.422 15.9698 28.184 17.4898 28.068C17.4918 28.068 17.4928 28.069 17.4938 28.068C17.6128 28.16 17.7228 28.261 17.8518 28.342C20.6228 30.088 21.8488 31.108 24.2887 31.184C25.9597 31.189 28.0267 29.805 30.3317 28.361C30.4607 28.28 30.5747 28.18 30.6967 28.09H30.7007C33.0456 28.287 35.0396 28.788 37.1676 30.049C37.8776 27.808 34.9166 25.5911 35.1716 16.8892C35.1666 16.4042 35.1396 15.9392 35.1036 15.4842C35.0906 15.3352 35.0736 15.1912 35.0586 15.0452C35.0256 14.7382 34.9876 14.4372 34.9406 14.1452C34.9166 13.9902 34.8896 13.8382 34.8606 13.6882C34.8086 13.4132 34.7496 13.1452 34.6856 12.8832C34.6506 12.7432 34.6156 12.6032 34.5776 12.4672C34.4926 12.1632 34.3986 11.8712 34.2966 11.5862C34.2696 11.5112 34.2486 11.4312 34.2206 11.3572C34.0846 10.9973 33.9356 10.6523 33.7726 10.3223C33.7366 10.2473 33.6936 10.1793 33.6556 10.1053C33.5316 9.86697 33.4026 9.63507 33.2656 9.41237C33.1936 9.29537 33.1176 9.18318 33.0426 9.07058C32.9236 8.89288 32.8006 8.71979 32.6736 8.55299C32.5916 8.4466 32.5106 8.3406 32.4256 8.2386C32.2776 8.06049 32.1226 7.89149 31.9646 7.7269C31.8967 7.6557 31.8317 7.5807 31.7617 7.512C31.5297 7.2848 31.2917 7.0676 31.0427 6.86751C30.9887 6.82451 30.9307 6.78821 30.8767 6.74641C30.6747 6.59121 30.4687 6.44311 30.2557 6.30501C30.1547 6.23971 30.0517 6.18091 29.9487 6.11942C29.7737 6.01462 29.5967 5.91262 29.4157 5.81872C29.3007 5.75892 29.1837 5.70222 29.0657 5.64682C28.8967 5.56732 28.7257 5.49272 28.5527 5.42222C28.4137 5.36582 28.2757 5.30883 28.1347 5.25813C27.9717 5.19983 27.8047 5.15073 27.6387 5.09993C27.4987 5.05713 27.3607 5.00853 27.2187 4.97103C26.8757 4.88083 26.5257 4.80623 26.1717 4.74643C25.5707 4.63783 24.9567 4.56163 24.3177 4.56083V4.56034ZM15.5549 12.1407C15.5949 12.2817 15.6459 12.4157 15.7069 12.5447C15.7069 12.5457 15.7089 12.5457 15.7089 12.5467C15.7699 12.6747 15.8409 12.7967 15.9219 12.9137C15.9399 12.9397 15.9618 12.9627 15.9798 12.9877C16.0478 13.0787 16.1178 13.1677 16.1968 13.2517C16.2958 13.3567 16.4038 13.4557 16.5198 13.5507C16.5568 13.5807 16.5998 13.6087 16.6388 13.6387C16.7218 13.7017 16.8048 13.7657 16.8958 13.8237C16.9288 13.8447 16.9648 13.8627 16.9978 13.8827C17.1028 13.9467 17.2098 14.0097 17.3238 14.0677C17.3728 14.0927 17.4318 14.1107 17.4818 14.1347C17.7388 14.2577 18.0058 14.3767 18.2988 14.4787C18.3538 14.4977 18.4178 14.5107 18.4748 14.5287C18.7788 14.6277 19.0918 14.7227 19.4278 14.8027H19.4298C19.4448 14.8057 19.4618 14.8087 19.4768 14.8117C20.2548 14.9957 21.1058 15.1337 21.9958 15.2457C25.5737 15.6967 29.7607 15.7457 32.2026 16.7497C32.5076 16.8747 32.7836 17.0157 33.0286 17.1737C33.0316 17.1747 33.0346 17.1757 33.0366 17.1777C33.0476 18.6417 33.0636 20.1066 33.0736 21.5816C33.0736 24.2276 31.9926 26.7046 30.0247 27.9525C27.8367 29.3405 25.8747 30.6685 24.2887 30.6635C21.9728 30.5905 20.8088 29.6115 18.1778 27.9335C16.3188 26.7476 15.5439 24.2876 15.5469 21.6286L15.5549 12.1407ZM20.4798 17.0227C19.9278 17.0237 19.4808 17.4707 19.4798 18.0227C19.4808 18.5757 19.9278 19.0227 20.4798 19.0227C21.0328 19.0227 21.4798 18.5757 21.4798 18.0227C21.4798 17.4707 21.0328 17.0237 20.4798 17.0227ZM27.9897 17.0227C27.4377 17.0237 26.9897 17.4707 26.9897 18.0227C26.9897 18.5757 27.4377 19.0227 27.9897 19.0227C28.5417 19.0227 28.9897 18.5757 28.9897 18.0227C28.9897 17.4707 28.5417 17.0237 27.9897 17.0227ZM24.1717 21.6406C23.6998 21.6466 23.3338 21.7286 23.3338 21.8256C23.3298 21.9286 23.7358 22.0116 24.2357 22.0116C24.7367 22.0116 25.1407 21.9286 25.1367 21.8256C25.1347 21.7236 24.7327 21.6406 24.2357 21.6406C24.2147 21.6396 24.1927 21.6396 24.1717 21.6406ZM23.9387 25.6456C22.2888 25.6506 21.0088 25.7006 21.0038 25.7616C20.9838 25.8256 22.4038 25.8786 24.1617 25.8786C25.9207 25.8786 27.3417 25.8256 27.3217 25.7616C27.3117 25.6976 25.8997 25.6456 24.1617 25.6456H23.9387ZM23.4258 31.1145C23.6908 31.1555 23.9667 31.1815 24.2597 31.1905C24.2687 31.1905 24.2797 31.1875 24.2887 31.1875C23.9838 31.1775 23.6978 31.1535 23.4258 31.1145ZM4 34.0155V44.0153H43.9975V34.0155H4ZM23.0308 35.3454C23.7638 35.3454 24.3317 35.5204 24.7357 35.8724C25.1427 36.2244 25.3477 36.7214 25.3477 37.3624C25.3477 37.7144 25.2567 38.0724 25.0737 38.4374C24.8917 38.8004 24.5797 39.2274 24.1367 39.7124L22.5198 41.4174H25.5757V42.5544H20.7008V41.5874L23.0018 39.1364C23.3178 38.7914 23.5508 38.4894 23.7008 38.2314C23.8538 37.9744 23.9317 37.7304 23.9317 37.4994C23.9317 37.1834 23.8508 36.9364 23.6908 36.7574C23.5318 36.5744 23.3038 36.4814 23.0078 36.4814C22.6888 36.4814 22.4358 36.5944 22.2498 36.8154C22.0678 37.0344 21.9768 37.3204 21.9768 37.6794H20.5608C20.5608 37.2464 20.6618 36.8494 20.8668 36.4914C21.0758 36.1334 21.3678 35.8534 21.7458 35.6514C22.1238 35.4464 22.5528 35.3454 23.0308 35.3454ZM8.60194 35.4334H8.75234V42.5544H7.34016V37.1124L5.65658 37.6364V36.4874L8.60194 35.4334ZM11.6893 35.4424H15.6743V36.6184H12.8463L12.6703 38.1474C13.0053 37.9684 13.3623 37.8804 13.7403 37.8804C14.4183 37.8804 14.9483 38.0894 15.3323 38.5094C15.7163 38.9294 15.9103 39.5174 15.9103 40.2724C15.9103 40.7324 15.8113 41.1444 15.6153 41.5094C15.4233 41.8704 15.1473 42.1524 14.7853 42.3534C14.4243 42.5524 13.9983 42.6514 13.5063 42.6514C13.0763 42.6514 12.6773 42.5664 12.3093 42.3944C11.9413 42.2184 11.6493 41.9714 11.4343 41.6554C11.2223 41.3394 11.1113 40.9794 11.0983 40.5754H12.4943C12.5233 40.8724 12.6273 41.1034 12.8033 41.2694C12.9823 41.4324 13.2133 41.5154 13.5003 41.5154C13.8193 41.5154 14.0663 41.4014 14.2383 41.1734C14.4113 40.9424 14.4983 40.6144 14.4983 40.1944C14.4983 39.7904 14.3983 39.4824 14.1993 39.2674C14.0013 39.0524 13.7183 38.9444 13.3543 38.9444C13.0183 38.9444 12.7473 39.0324 12.5393 39.2084L12.4023 39.3354L11.2773 39.0584L11.6893 35.4424ZM27.0661 35.4424H31.0531V36.6184H28.2251L28.0491 38.1474C28.3841 37.9684 28.7411 37.8804 29.1191 37.8804C29.7971 37.8804 30.3271 38.0894 30.7111 38.5094C31.0951 38.9294 31.2871 39.5174 31.2871 40.2724C31.2871 40.7324 31.1901 41.1444 30.9941 41.5094C30.8021 41.8704 30.5261 42.1524 30.1641 42.3534C29.8031 42.5524 29.3771 42.6514 28.8851 42.6514C28.4551 42.6514 28.0551 42.5664 27.6881 42.3944C27.3191 42.2184 27.0271 41.9714 26.8121 41.6554C26.6021 41.3394 26.4901 40.9794 26.4771 40.5754H27.8731C27.9021 40.8724 28.0061 41.1034 28.1821 41.2694C28.3611 41.4324 28.5921 41.5154 28.8791 41.5154C29.1981 41.5154 29.4451 41.4014 29.6171 41.1734C29.7901 40.9424 29.8751 40.6144 29.8751 40.1944C29.8751 39.7904 29.7771 39.4824 29.5781 39.2674C29.3791 39.0524 29.0971 38.9444 28.7321 38.9444C28.3971 38.9444 28.1241 39.0324 27.9161 39.2084L27.7791 39.3354L26.6561 39.0584L27.0661 35.4424ZM31.7171 35.4424H33.324L34.795 38.6454L36.275 35.4424H37.877L35.543 39.9764V42.5544H34.053V39.9764L31.7171 35.4424ZM40.1779 37.1714C40.8489 37.1714 41.3849 37.3304 41.7849 37.6454C42.1889 37.9614 42.3929 38.3714 42.3929 38.8764H40.9799C40.9799 38.6744 40.9149 38.5084 40.7849 38.3784C40.6549 38.2444 40.4509 38.1774 40.1739 38.1774C39.9359 38.1774 39.751 38.2314 39.621 38.3394C39.491 38.4464 39.426 38.5834 39.426 38.7494C39.426 38.9054 39.5 39.0324 39.646 39.1304C39.796 39.2244 40.0469 39.3084 40.3979 39.3804C40.7499 39.4484 41.0459 39.5264 41.2869 39.6144C42.0329 39.8884 42.4059 40.3624 42.4059 41.0364C42.4059 41.5184 42.1989 41.9084 41.7849 42.2084C41.3719 42.5044 40.8379 42.6514 40.1839 42.6514C39.741 42.6514 39.347 42.5734 39.002 42.4174C38.66 42.2574 38.391 42.0424 38.195 41.7694C38 41.4924 37.902 41.1934 37.902 40.8744H39.24C39.253 41.1254 39.347 41.3174 39.52 41.4504C39.692 41.5844 39.9229 41.6514 40.2129 41.6514C40.4829 41.6514 40.6869 41.6004 40.8239 41.4994C40.9639 41.3954 41.0329 41.2614 41.0329 41.0954C41.0329 40.9224 40.9479 40.7864 40.7749 40.6884C40.6059 40.5874 40.3309 40.4974 39.9529 40.4194C38.696 40.1554 38.068 39.6224 38.068 38.8174C38.068 38.3484 38.263 37.9584 38.65 37.6454C39.041 37.3304 39.549 37.1714 40.1779 37.1714ZM16.8672 38.9404H19.6172V40.0774H16.8672V38.9404Z" fill="#333333"/>
</svg>

<?xml version="1.0" encoding="UTF-8" standalone="no"?>
<!-- Created with Inkscape (http://www.inkscape.org/) -->
<svg id="svg8" xmlns:rdf="http://www.w3.org/1999/02/22-rdf-syntax-ns#" xmlns="http://www.w3.org/2000/svg" height="48" viewBox="0 0 12.7 12.7" width="48" version="1.1" xmlns:cc="http://creativecommons.org/ns#" xmlns:dc="http://purl.org/dc/elements/1.1/">
 <title id="title4753">UIO-icon</title>
 <metadata id="metadata5">
  <rdf:RDF>
   <cc:Work rdf:about="">
    <dc:format>image/svg+xml</dc:format>
    <dc:type rdf:resource="http://purl.org/dc/dcmitype/StillImage"/>
    <dc:title>UIO-icon</dc:title>
    <dc:creator>
     <cc:Agent>
      <dc:title>Joaquín Urbano</dc:title>
     </cc:Agent>
    </dc:creator>
    <dc:rights>
     <cc:Agent>
      <dc:title>GPL</dc:title>
     </cc:Agent>
    </dc:rights>
   </cc:Work>
  </rdf:RDF>
 </metadata>
 <path id="path859" d="m24.318 4.5605c-0.066 0-0.131 0.0065-0.197 0.0079-0.029-0.0003-0.057-0.0038-0.086-0.0039-0.013-0.0005-0.023-0.0001-0.037 0v-0.002c-3.817-0.1086-10.921 2.4716-11.176 12.324 0.256 8.703-2.704 10.92-1.994 13.161 0.548-0.324 1.086-0.598 1.623-0.83 0.269-0.116 0.536-0.221 0.805-0.317 1.346-0.478 2.714-0.716 4.234-0.832 0.002 0 0.003 0.001 0.004 0 0.119 0.092 0.229 0.193 0.358 0.274 2.771 1.746 3.997 2.766 6.437 2.842 1.671 0.005 3.738-1.379 6.043-2.823 0.129-0.081 0.243-0.181 0.365-0.271h0.004c2.345 0.197 4.339 0.698 6.467 1.959 0.71-2.241-2.251-4.458-1.996-13.16-0.005-0.485-0.032-0.95-0.068-1.405-0.013-0.149-0.03-0.293-0.045-0.439-0.033-0.307-0.071-0.608-0.118-0.9-0.024-0.155-0.051-0.307-0.08-0.457-0.052-0.275-0.111-0.543-0.175-0.805-0.035-0.14-0.07-0.28-0.108-0.416-0.085-0.304-0.179-0.596-0.281-0.881-0.027-0.075-0.048-0.155-0.076-0.229-0.136-0.36-0.285-0.705-0.448-1.035-0.036-0.075-0.079-0.143-0.117-0.217-0.124-0.2383-0.253-0.4702-0.39-0.6929-0.072-0.117-0.148-0.2292-0.223-0.3418-0.119-0.1777-0.242-0.3508-0.369-0.5176-0.082-0.1064-0.163-0.2124-0.248-0.3144-0.148-0.1781-0.303-0.3471-0.461-0.5117-0.068-0.0712-0.133-0.1462-0.203-0.2149-0.232-0.2272-0.47-0.4444-0.719-0.6445-0.054-0.043-0.112-0.0793-0.166-0.1211-0.202-0.1552-0.408-0.3033-0.621-0.4414-0.101-0.0653-0.204-0.1241-0.307-0.1856-0.175-0.1048-0.352-0.2068-0.533-0.3007-0.115-0.0598-0.232-0.1165-0.35-0.1719-0.169-0.0795-0.34-0.1541-0.513-0.2246-0.139-0.0564-0.277-0.1134-0.418-0.1641-0.163-0.0583-0.33-0.1074-0.496-0.1582-0.14-0.0428-0.278-0.0914-0.42-0.1289-0.343-0.0902-0.693-0.1648-1.047-0.2246-0.601-0.1086-1.215-0.1848-1.854-0.1856zm-8.763 7.5805c0.04 0.141 0.091 0.275 0.152 0.404 0 0.001 0.002 0.001 0.002 0.002 0.061 0.128 0.132 0.25 0.213 0.367 0.018 0.026 0.04 0.049 0.058 0.074 0.068 0.091 0.138 0.18 0.217 0.264 0.099 0.105 0.207 0.204 0.323 0.299 0.037 0.03 0.08 0.058 0.119 0.088 0.083 0.063 0.166 0.127 0.257 0.185 0.033 0.021 0.069 0.039 0.102 0.059 0.105 0.064 0.212 0.127 0.326 0.185 0.049 0.025 0.108 0.043 0.158 0.067 0.257 0.123 0.524 0.242 0.817 0.344 0.055 0.019 0.119 0.032 0.176 0.05 0.304 0.099 0.617 0.194 0.953 0.274h0.002c0.015 0.003 0.032 0.006 0.047 0.009 0.778 0.184 1.629 0.322 2.519 0.434 3.578 0.451 7.765 0.5 10.207 1.504 0.305 0.125 0.581 0.266 0.826 0.424 0.003 0.001 0.006 0.002 0.008 0.004 0.011 1.464 0.027 2.929 0.037 4.404 0 2.646-1.081 5.123-3.049 6.371-2.188 1.388-4.15 2.716-5.736 2.711-2.316-0.073-3.48-1.052-6.111-2.73-1.859-1.186-2.634-3.646-2.631-6.305l0.008-9.488zm4.925 4.882c-0.552 0.001-0.999 0.448-1 1 0.001 0.553 0.448 1 1 1 0.553 0 1-0.447 1-1 0-0.552-0.447-0.999-1-1zm7.51 0c-0.552 0.001-1 0.448-1 1 0 0.553 0.448 1 1 1s1-0.447 1-1c0-0.552-0.448-0.999-1-1zm-3.818 4.618c-0.472 0.006-0.838 0.088-0.838 0.185-0.004 0.103 0.402 0.186 0.902 0.186 0.501 0 0.905-0.083 0.901-0.186-0.002-0.102-0.404-0.185-0.901-0.185-0.021-0.001-0.043-0.001-0.064 0zm-0.233 4.005c-1.65 0.005-2.93 0.055-2.935 0.116-0.02 0.064 1.4 0.117 3.158 0.117 1.759 0 3.18-0.053 3.16-0.117-0.01-0.064-1.422-0.116-3.16-0.116h-0.223zm-0.513 5.469c0.265 0.041 0.541 0.067 0.834 0.076 0.009 0 0.02-0.003 0.029-0.003-0.305-0.01-0.591-0.034-0.863-0.073zm-19.426 2.901v10h39.998v-10h-39.998zm19.031 1.33c0.733 0 1.301 0.175 1.705 0.527 0.407 0.352 0.612 0.849 0.612 1.49 0 0.352-0.091 0.71-0.274 1.075-0.182 0.363-0.494 0.79-0.937 1.275l-1.617 1.705h3.056v1.137h-4.875v-0.967l2.301-2.451c0.316-0.345 0.549-0.647 0.699-0.905 0.153-0.257 0.231-0.501 0.231-0.732 0-0.316-0.081-0.563-0.241-0.742-0.159-0.183-0.387-0.276-0.683-0.276-0.319 0-0.572 0.113-0.758 0.334-0.182 0.219-0.273 0.505-0.273 0.864h-1.416c0-0.433 0.101-0.83 0.306-1.188 0.209-0.358 0.501-0.638 0.879-0.84 0.378-0.205 0.807-0.306 1.285-0.306zm-14.429 0.088h0.1504v7.121h-1.4122v-5.442l-1.6836 0.524v-1.149l2.9454-1.054zm3.0874 0.009h3.985v1.176h-2.828l-0.176 1.529c0.335-0.179 0.692-0.267 1.07-0.267 0.678 0 1.208 0.209 1.592 0.629s0.578 1.008 0.578 1.763c0 0.46-0.099 0.872-0.295 1.237-0.192 0.361-0.468 0.643-0.83 0.844-0.361 0.199-0.787 0.298-1.279 0.298-0.43 0-0.829-0.085-1.197-0.257-0.368-0.176-0.66-0.423-0.875-0.739-0.212-0.316-0.323-0.676-0.336-1.08h1.396c0.029 0.297 0.133 0.528 0.309 0.694 0.179 0.163 0.41 0.246 0.697 0.246 0.319 0 0.566-0.114 0.738-0.342 0.173-0.231 0.26-0.559 0.26-0.979 0-0.404-0.1-0.712-0.299-0.927-0.198-0.215-0.481-0.323-0.845-0.323-0.336 0-0.607 0.088-0.815 0.264l-0.137 0.127-1.125-0.277 0.412-3.616zm15.377 0h3.987v1.176h-2.828l-0.176 1.529c0.335-0.179 0.692-0.267 1.07-0.267 0.678 0 1.208 0.209 1.592 0.629s0.576 1.008 0.576 1.763c0 0.46-0.097 0.872-0.293 1.237-0.192 0.361-0.468 0.643-0.83 0.844-0.361 0.199-0.787 0.298-1.279 0.298-0.43 0-0.83-0.085-1.197-0.257-0.369-0.176-0.661-0.423-0.876-0.739-0.21-0.316-0.322-0.676-0.335-1.08h1.396c0.029 0.297 0.133 0.528 0.309 0.694 0.179 0.163 0.41 0.246 0.697 0.246 0.319 0 0.566-0.114 0.738-0.342 0.173-0.231 0.258-0.559 0.258-0.979 0-0.404-0.098-0.712-0.297-0.927s-0.481-0.323-0.846-0.323c-0.335 0-0.608 0.088-0.816 0.264l-0.137 0.127-1.123-0.277 0.41-3.616zm4.651 0h1.607l1.471 3.203 1.48-3.203h1.602l-2.334 4.534v2.578h-1.49v-2.578l-2.336-4.534zm8.461 1.729c0.671 0 1.207 0.159 1.607 0.474 0.404 0.316 0.608 0.726 0.608 1.231h-1.413c0-0.202-0.065-0.368-0.195-0.498-0.13-0.134-0.334-0.201-0.611-0.201-0.238 0-0.423 0.054-0.553 0.162-0.13 0.107-0.195 0.244-0.195 0.41 0 0.156 0.074 0.283 0.22 0.381 0.15 0.094 0.401 0.178 0.752 0.25 0.352 0.068 0.648 0.146 0.889 0.234 0.746 0.274 1.119 0.748 1.119 1.422 0 0.482-0.207 0.872-0.621 1.172-0.413 0.296-0.947 0.443-1.601 0.443-0.443 0-0.837-0.078-1.182-0.234-0.342-0.16-0.611-0.375-0.807-0.648-0.195-0.277-0.293-0.576-0.293-0.895h1.338c0.013 0.251 0.107 0.443 0.28 0.576 0.172 0.134 0.403 0.201 0.693 0.201 0.27 0 0.474-0.051 0.611-0.152 0.14-0.104 0.209-0.238 0.209-0.404 0-0.173-0.085-0.309-0.258-0.407-0.169-0.101-0.444-0.191-0.822-0.269-1.257-0.264-1.885-0.797-1.885-1.602 0-0.469 0.195-0.859 0.582-1.172 0.391-0.315 0.899-0.474 1.528-0.474zm-23.311 1.769h2.75v1.137h-2.75v-1.137z" fill-rule="evenodd" transform="scale(.26458)" stroke-width="3.7795" fill="#333"/>
</svg>
